X: 13049
T: Fingall's Lamentation
R: waltz
M: 3/4
K: Eminor
F|(G<E) B2 (.E.E)|~GG BAGF|(G<E) B2 (.E.E)|(=DF) ~E3F|
(G<E) B2 ~(.E.E)|(GA) B2 B=d|e>_d {c}B2 AG|TF>E E3:|
|:B|Te>f (e_d) (BA)|TA>B d2 (BA)|B=d Te3f|{e/f/}g>f {f}e3B|
{B}g>f {f}e2 (d>c)|(c/B/)(A/G/) G2 B=d|(e>_d) B2 (.E.E)|T(_DF) E3:|

